src/icons/media-powerpoint.svg

<svg xmlns="http://www.w3.org/2000/svg" width="512" height="512" viewBox="0 0 512 512">
    <path d="M416 89.5v320H96v-320h320zm-149.2 96H206v149.4h37.3v-51.2h24.5c19.2 0 32-6.4 40.5-17.1 6.4-9.6 9.6-20.3 9.7-33.1 0-13.9-4.2-24.6-11.7-33.1-8.6-9.6-22.4-14.9-39.5-14.9zM251.2 214c8.5 0 14.9 1.1 18.2 5.3 3.2 3.2 5.3 7.5 5.3 13.9 0 5.4-1.1 10.7-4.3 13.9-4.3 4.3-9.6 6.4-19.2 6.4h-13.9V214z"/>
</svg>

<?xml version="1.0" encoding="UTF-8"?>
<svg width="512px" height="512px" viewBox="0 0 512 512" version="1.1" xmlns="http://www.w3.org/2000/svg" xmlns:xlink="http://www.w3.org/1999/xlink">
    <!-- Generator: Sketch 62 (91390) - https://sketch.com -->
    <title>media-powerpoint</title>
    <desc>Created with Sketch.</desc>
    <g id="media-powerpoint" stroke="none" stroke-width="1" fill="none" fill-rule="evenodd">
        <path d="M416,89.5 L416,409.5 L96,409.5 L96,89.5 L416,89.5 Z M266.8,185.5 L206,185.5 L206,334.9 L243.3,334.9 L243.3,283.7 L267.8,283.7 C287,283.7 299.8,277.3 308.3,266.6 C314.7,257 317.9,246.3 318,233.5 C318,219.6 313.8,208.9 306.3,200.4 C297.7,190.8 283.9,185.5 266.8,185.5 L266.8,185.5 Z M251.2,214 C259.7,214 266.1,215.1 269.4,219.3 C272.6,222.5 274.7,226.8 274.7,233.2 C274.7,238.6 273.6,243.9 270.4,247.1 C266.1,251.4 260.8,253.5 251.2,253.5 L251.2,253.5 L237.3,253.5 L237.3,214 Z" id="Combined-Shape" fill="#000000" fill-rule="nonzero"></path>
    </g>
</svg>
